public/avatar/shoe/88.svg

<svg xmlns:xlink="http://www.w3.org/1999/xlink" height="38.3" width="36.05" xmlns="http://www.w3.org/2000/svg"><use height="19.1" transform="translate(9.75 10.85)" width="20.6" xlink:href="#a"/><defs><g id="a" fill-rule="evenodd"><path d="m-8.3 9.15 2.95.3q.35-.15.6 0 .55.2.7 1.05-1.65 1.25-4.7 0l-1.6-.9-1-1.25q-1.5.05-1.25 1.8.2 1.65 1.55 2.15l.05.1q3 1.4 7.3.95l.4-.05 1.55-.15q2.15-.25 4.3-2.55 1.8-1.95 2.35-3.75Q5 1.25 4.7.1 3.95-2.35.45-2.3-4.5-1.4-8.3 9.15M.8-4q3.05-.05 4.4 1.35 1.55 1.6 1.35 8L6.5 7.2q-.65 2.25-2.9 4.65Q1 14.5-1.55 14.9l-3.8.15q-3.15.3-6.95-1.5l-.2-.05q-2.2-1.95-1.3-4.65.6-1.85 2.7-2.05.45 0 .65.3l.7 1.1Q-4.05-4.05.8-4" fill="#240259" transform="translate(14.05 4)"/><path d="M4.7.1q.3 1.15.2 6.75-.55 1.8-2.35 3.75-2.15 2.3-4.3 2.55l-1.55.15-.4.05q-4.3.45-7.3-.95l-.05-.1q-1.35-.5-1.55-2.15-.25-1.75 1.25-1.8l1 1.25 1.6.9q3.05 1.25 4.7 0-.15-.85-.7-1.05-.25-.15-.6 0l-2.95-.3Q-4.5-1.4.45-2.3 3.95-2.35 4.7.1" fill="#d2b9f9" transform="translate(14.05 4)"/><path d="M4.7.1q.3 1.15.2 6.75l-.3.65q-2.2 5.2-6.35 5.65l-1.55.15-.4.05q-4.3.45-7.3-.95l-.05-.1-.65-.4q4.25 1.8 8.6 0 4.4-1.75 6.3-6.15-1.65-1.45-8.85-2.1Q-2.45-1.8.45-2.3 3.95-2.35 4.7.1" fill="#9873e0" transform="translate(14.05 4)"/><path d="M-12.55 9.25q.2-.95 1.05-.9v.2q2.25 1.3 2.65 2.4l-1.95-.8q-1.35-.45-1.4.55-.45-.55-.35-1.45M-5.65 4q5.15.1 6.95 1.6-3.55-.5-6.15 1.05L-7.4 9.2q.7-3.6 1.75-5V4" fill="#faf8ff" transform="translate(14.05 4)"/></g></defs></svg>

<?xml version="1.0" encoding="UTF-8" standalone="no"?>
<svg xmlns:xlink="http://www.w3.org/1999/xlink" height="38.3px" width="36.05px" xmlns="http://www.w3.org/2000/svg">
  <g transform="matrix(1.0, 0.0, 0.0, 1.0, 23.8, 14.85)">
    <use height="19.1" transform="matrix(1.0, 0.0, 0.0, 1.0, -14.05, -4.0)" width="20.6" xlink:href="#shape0"/>
  </g>
  <defs>
    <g id="shape0" transform="matrix(1.0, 0.0, 0.0, 1.0, 14.05, 4.0)">
      <path d="M-8.3 9.15 L-5.35 9.45 Q-5.0 9.3 -4.75 9.45 -4.2 9.65 -4.05 10.5 -5.7 11.75 -8.75 10.5 L-10.35 9.6 -11.35 8.35 Q-12.85 8.4 -12.6 10.15 -12.4 11.8 -11.05 12.3 L-11.0 12.4 Q-8.0 13.8 -3.7 13.35 L-3.3 13.3 -1.75 13.15 Q0.4 12.9 2.55 10.6 4.35 8.65 4.9 6.85 5.0 1.25 4.7 0.1 3.95 -2.35 0.45 -2.3 -4.5 -1.4 -8.3 9.15 M0.8 -4.0 Q3.85 -4.05 5.2 -2.65 6.75 -1.05 6.55 5.35 L6.5 7.2 Q5.85 9.45 3.6 11.85 1.0 14.5 -1.55 14.9 L-5.35 15.05 Q-8.5 15.35 -12.3 13.55 L-12.5 13.5 Q-14.7 11.55 -13.8 8.85 -13.2 7.0 -11.1 6.8 -10.65 6.8 -10.45 7.1 L-9.75 8.2 Q-4.05 -4.05 0.8 -4.0" fill="#240259" fill-rule="evenodd" stroke="none"/>
      <path d="M4.7 0.1 Q5.0 1.25 4.9 6.85 4.35 8.65 2.55 10.6 0.4 12.9 -1.75 13.15 L-3.3 13.3 -3.7 13.35 Q-8.0 13.8 -11.0 12.4 L-11.05 12.3 Q-12.4 11.8 -12.6 10.15 -12.85 8.4 -11.35 8.35 L-10.35 9.6 -8.75 10.5 Q-5.7 11.75 -4.05 10.5 -4.2 9.65 -4.75 9.45 -5.0 9.3 -5.35 9.45 L-8.3 9.15 Q-4.5 -1.4 0.45 -2.3 3.95 -2.35 4.7 0.1" fill="#d2b9f9" fill-rule="evenodd" stroke="none"/>
      <path d="M4.7 0.1 Q5.0 1.25 4.9 6.85 L4.6 7.5 Q2.4 12.7 -1.75 13.15 L-3.3 13.3 -3.7 13.35 Q-8.0 13.8 -11.0 12.4 L-11.05 12.3 -11.7 11.9 Q-7.45 13.7 -3.1 11.9 1.3 10.15 3.2 5.75 1.55 4.3 -5.65 3.65 -2.45 -1.8 0.45 -2.3 3.95 -2.35 4.7 0.1" fill="#9873e0" fill-rule="evenodd" stroke="none"/>
      <path d="M-12.55 9.25 Q-12.35 8.3 -11.5 8.35 L-11.5 8.55 Q-9.25 9.85 -8.85 10.95 L-10.8 10.15 Q-12.15 9.7 -12.2 10.7 -12.65 10.15 -12.55 9.25" fill="#faf8ff" fill-rule="evenodd" stroke="none"/>
      <path d="M-5.65 4.0 Q-0.5 4.1 1.3 5.6 -2.25 5.1 -4.85 6.65 L-7.4 9.2 Q-6.7 5.6 -5.65 4.2 L-5.65 4.0" fill="#faf8ff" fill-rule="evenodd" stroke="none"/>
    </g>
  </defs>
</svg>
